media/costumes/vest-b.svg

<svg width="46" height="94" viewBox="-1 -1 46 94" xmlns="http://www.w3.org/2000/svg"><g stroke="#000"><path stroke-linecap="round" d="M70.05 92.45c.269-.584.776-1.634 1.05-1.2.89 1.325.904 2.338.9 4.75.503 9.65-.032 19.372.5 29 .174 3.146 1.153 6.296 2 9.25.492 1.726 2.156 2.459 2 5-.626 10.152-.904 20.773-4.25 30.25-1.765 5.001-7.204 7.989-10.75 11.75-.886.94-.894 1.65-1.25 1.25-.822-.939-.574-2.371-1-3.5-.725-1.933-2.147-3.524-2.25-5.5-.155-2.982.942-6.18 1.5-9.25.847-4.665 1.891-9.661 2.75-14.5 2.197-12.377 4.787-24.915 6.75-37.5.786-5.494.856-11.177 1.5-16.75.161-1.393.137-2.107.55-3.05z" transform="matrix(-.905 0 0 .94714 96 -84.05)"/><path stroke-linecap="round" d="M98.35 127.3c.766 3.233 1.098 6.635 2.95 9.3.642.916 2.706-1.008 3.1 0 1.226 2.441.748 5.377.75 8.2.005 4.265-.312 8.544-.5 12.8-.25 5.655-.375 11.368-1.3 16.95-.245 1.396-.038 1.001-1.6 1.7-6.449 3.109-13.248 5.568-19.65 8.4-1.6.708-1.641 1.111-2.6 1.5-.35.155-.545.946-1.25.1-2.819-3.385-5.829-6.824-7.5-10.9-1.06-2.597-.313-5.826-.25-8.8-.063-3.29-.05-6.551.25-10 .501-5.761.148-11.95 2-17.25 1.443-4.119 5.353-7.111 7.5-10.75 3.046-5.163 6.23-10.358 8.25-16 1.556-4.348.885-9.326 2-13.85.712-2.89 2.078-5.662 3.75-8.2.288-.649.923-.572 1.55-.4.942.265 1.709.81 2.55 1.55.492.438 1.111 1.13.9 1.75-.647 1.906-2.57 3.326-3.1 5.3A35.8 35.8 0 0 0 95 110.35c.377 5.713 2.022 11.352 3.35 16.95z" transform="matrix(-.905 0 0 .94714 96 -84.05)"/><path fill="#7F7F7F" d="M76.625 140.25c.517 0 .986.21 1.325.55.34.339.55.808.55 1.325 0 .517-.21.986-.55 1.325-.339.34-.808.55-1.325.55-.517 0-.986-.21-1.325-.55a1.866 1.866 0 0 1-.55-1.325c0-.517.21-.986.55-1.325.339-.34.808-.55 1.325-.55z" transform="matrix(-.905 0 0 .94714 96 -84.05)"/><path fill="#7F7F7F" d="M76.625 140.25c.517 0 .986.21 1.325.55.34.339.55.808.55 1.325 0 .517-.21.986-.55 1.325-.339.34-.808.55-1.325.55-.517 0-.986-.21-1.325-.55a1.866 1.866 0 0 1-.55-1.325c0-.517.21-.986.55-1.325.339-.34.808-.55 1.325-.55z" transform="matrix(-.905 0 0 .94714 97.95 -71.7)"/><path fill="#7F7F7F" d="M76.625 140.25c.517 0 .986.21 1.325.55.34.339.55.808.55 1.325 0 .517-.21.986-.55 1.325-.339.34-.808.55-1.325.55-.517 0-.986-.21-1.325-.55a1.866 1.866 0 0 1-.55-1.325c0-.517.21-.986.55-1.325.339-.34.808-.55 1.325-.55z" transform="matrix(-.905 0 0 .94714 98.9 -58.1)"/></g></svg>

<svg version="1.1" width="46" height="94" viewBox="-1 -1 46 94" xmlns="http://www.w3.org/2000/svg" xmlns:xlink="http://www.w3.org/1999/xlink">
  <!-- Exported by Scratch - http://scratch.mit.edu/ -->
  <g id="ID0.3477865853346884">
    <path id="ID0.31083610747009516" fill="#000000" stroke="#000000" stroke-width="1" stroke-linecap="round" d="M 70.050 92.450 C 70.319 91.866 70.826 90.816 71.100 91.250 C 71.990 92.575 72.004 93.588 72 96 C 72.503 105.650 71.968 115.372 72.500 125 C 72.674 128.146 73.653 131.296 74.500 134.250 C 74.992 135.976 76.656 136.709 76.500 139.250 C 75.874 149.402 75.596 160.023 72.250 169.500 C 70.485 174.501 65.046 177.489 61.500 181.250 C 60.614 182.190 60.606 182.900 60.250 182.500 C 59.428 181.561 59.676 180.129 59.250 179 C 58.525 177.067 57.103 175.476 57 173.500 C 56.845 170.518 57.942 167.320 58.500 164.250 C 59.347 159.585 60.391 154.589 61.250 149.750 C 63.447 137.373 66.037 124.835 68 112.250 C 68.786 106.756 68.856 101.073 69.500 95.500 C 69.661 94.107 69.637 93.393 70.050 92.450 Z " transform="matrix(-0.9050069451332092, 0, 0, 0.9471355080604553, 96, -84.05)"/>
    <path id="ID0.6510458718985319" fill="#000000" stroke="#000000" stroke-width="1" stroke-linecap="round" d="M 98.350 127.300 C 99.116 130.533 99.448 133.935 101.300 136.600 C 101.942 137.516 104.006 135.592 104.400 136.600 C 105.626 139.041 105.148 141.977 105.150 144.800 C 105.155 149.065 104.838 153.344 104.650 157.600 C 104.400 163.255 104.275 168.968 103.350 174.550 C 103.105 175.946 103.312 175.551 101.750 176.250 C 95.301 179.359 88.502 181.818 82.100 184.650 C 80.500 185.358 80.459 185.761 79.500 186.150 C 79.150 186.305 78.955 187.096 78.250 186.250 C 75.431 182.865 72.421 179.426 70.750 175.350 C 69.690 172.753 70.437 169.524 70.500 166.550 C 70.437 163.260 70.450 159.999 70.750 156.550 C 71.251 150.789 70.898 144.600 72.750 139.300 C 74.193 135.181 78.103 132.189 80.250 128.550 C 83.296 123.387 86.480 118.192 88.500 112.550 C 90.056 108.202 89.385 103.224 90.500 98.700 C 91.212 95.810 92.578 93.038 94.250 90.500 C 94.538 89.851 95.173 89.928 95.800 90.100 C 96.742 90.365 97.509 90.910 98.350 91.650 C 98.842 92.088 99.461 92.780 99.250 93.400 C 98.603 95.306 96.680 96.726 96.150 98.700 C 95.124 102.519 94.742 106.461 95 110.350 C 95.377 116.063 97.022 121.702 98.350 127.300 Z " transform="matrix(-0.9050069451332092, 0, 0, 0.9471355080604553, 96, -84.05)"/>
    <path id="ID0.4986346890218556" fill="#7F7F7F" stroke="#000000" stroke-width="1" d="M 76.625 140.250 C 77.142 140.250 77.611 140.460 77.950 140.800 C 78.290 141.139 78.500 141.608 78.500 142.125 C 78.500 142.642 78.290 143.111 77.950 143.450 C 77.611 143.790 77.142 144 76.625 144 C 76.108 144 75.639 143.790 75.300 143.450 C 74.960 143.111 74.750 142.642 74.750 142.125 C 74.750 141.608 74.960 141.139 75.300 140.800 C 75.639 140.460 76.108 140.250 76.625 140.250 Z " transform="matrix(-0.9050069451332092, 0, 0, 0.9471355080604553, 96, -84.05)"/>
    <path id="ID0.4986346890218556" fill="#7F7F7F" stroke="#000000" stroke-width="1" d="M 76.625 140.250 C 77.142 140.250 77.611 140.460 77.950 140.800 C 78.290 141.139 78.500 141.608 78.500 142.125 C 78.500 142.642 78.290 143.111 77.950 143.450 C 77.611 143.790 77.142 144 76.625 144 C 76.108 144 75.639 143.790 75.300 143.450 C 74.960 143.111 74.750 142.642 74.750 142.125 C 74.750 141.608 74.960 141.139 75.300 140.800 C 75.639 140.460 76.108 140.250 76.625 140.250 Z " transform="matrix(-0.9050069451332092, 0, 0, 0.9471355080604553, 97.95, -71.7)"/>
    <path id="ID0.4986346890218556" fill="#7F7F7F" stroke="#000000" stroke-width="1" d="M 76.625 140.250 C 77.142 140.250 77.611 140.460 77.950 140.800 C 78.290 141.139 78.500 141.608 78.500 142.125 C 78.500 142.642 78.290 143.111 77.950 143.450 C 77.611 143.790 77.142 144 76.625 144 C 76.108 144 75.639 143.790 75.300 143.450 C 74.960 143.111 74.750 142.642 74.750 142.125 C 74.750 141.608 74.960 141.139 75.300 140.800 C 75.639 140.460 76.108 140.250 76.625 140.250 Z " transform="matrix(-0.9050069451332092, 0, 0, 0.9471355080604553, 98.9, -58.1)"/>
  </g>
</svg>
